!!!COM: Fanny (Mendelssohn) Hensel
!!!CNT: Deutsch
!!!TXO: Deutsch
!!!OTL: "Wanderlied"
!!!LYR: von Goethe, Johann Wolfgang
!!!OPR: 
!!!OPS: Op. 1
!!!ONM: No. 2
!!!ENC: Emily Thomas
!!!YOR: Hensel: Ausgewa2hlte Lieder fu2r Singstimme und Klavier
!!!YOR: Breitkopf & Hartel, 1994
!!!ODT: 1837/
!!NB: Vocal melody and text encoded.
**kern	**silbe
=1-	=1
*clefG2	*
*k[f#c#]	*
*M4/8	*
*MM[Allegro molto vivace]	*
2r	.
=2	=2
4r	.
8r	.
{16f#	{Von
16g	den
=3	=3
8g#	Ber-
8a	-gen
8ee	zu
8dd	den
=4	=4
8cc#	Hu2-
8b}	-geln,}
8r	.
{16e	{nie-
16f#	-der-
=5	=5
8g	-ab
8g#	das
8a	Tal
8b	ent-
=6	=6
8dd	-lang,
8cc#}	|}
8r	.
{16f#	{da
16e	er-
=7	=7
8d	-klingt
8f#	es
8dd	wie
8b	von
=8	=8
8a	Flu2-
8g#}	-geln,}
8r	.
{16b	{da
16a	be-
=9	=9
8a	-wegt
16dd	sichs
16cc#	|
8cc#	wie
16ff#	Ge-
16ee	|
=10	=10
8ee	-sang,
8dd#}	|}
{8ddn	{da
8cc#	be-
=11	=11
4b	-wegt
8cn	|
8a	sichs
=12	=12
4aS	wie
8.cc#	|
16b	Ge-
=13	=13
4a}	-sang.}
4r	.
=14	=14
4r	.
8r	.
{16e	{Und
16f#	dem
=15	=15
8g	un-
8g	-be-
8.ee	-ding-
16dd	-ten
=16	=16
8dd	Trie-
8cc#}	-be}
8r	.
{16e	{fol-
16f#	-get
=17	=17
8g	Freu-
8g	-de,
8.ee	fol-
16dd	-get
=18	=18
4cc#}	Rat,}
4r	.
=19	=19
4r	.
8r	.
{16f#	{und
16g	dein
=20	=20
8g#	Stre-
8a	-ben
8dd	sei's
8cc#	in
=21	=21
8a#	Lie-
8b}	-be,}
8r	.
{16g	{und
16an	dein
=22	=22
8a#	Le-
8b	-ben
8ee	sei
8dd	die
=23	=23
8b#	Tat,
8cc#}	|}
8r	.
{16a	{und
16bn	dein
=24	=24
8b#	Stre-
8cc#	-ben
8ff#	sei's
8ee	in
=25	=25
8cc#	Lie-
8dd}	-be,}
{8gg	{und
8ff#	dein
=26	=26
8ee	Le-
8dd	|
8cc#	-ben,
8b	dein
=27	=27
4.a	Le-
16dd	-ben
16b	|
=28	=28
2aS	sei
=29	=29
4b	|
4cc#	die
=30	=30
2dd}	Tat.}
==	==
*-	*-
